icons/chevrons-out.svg

<svg xmlns="http://www.w3.org/2000/svg" width="24" height="24" viewBox="0 0 24 24">
  <path d="M3,13 L3.11662113,13.0067277 C3.61395981,13.0644928 4,13.4871642 4,14 L4,14 L4,20 L10,20 L10.1166211,20.0067277 C10.6139598,20.0644928 11,20.4871642 11,21 C11,21.5522847 10.5522847,22 10,22 L10,22 L3,22 L2.88337887,21.9932723 C2.38604019,21.9355072 2,21.5128358 2,21 L2,21 L2,14 L2.00672773,13.8833789 C2.06449284,13.3860402 2.48716416,13 3,13 L3,13 Z M21,13 C21.5128358,13 21.9355072,13.3860402 21.9932723,13.8833789 L22,14 L22,21 C22,21.5128358 21.6139598,21.9355072 21.1166211,21.9932723 L21,22 L14,22 C13.4477153,22 13,21.5522847 13,21 C13,20.4871642 13.3860402,20.0644928 13.8833789,20.0067277 L14,20 L20,20 L20,14 C20,13.4871642 20.3860402,13.0644928 20.8833789,13.0067277 L21,13 Z M21,2 L21.1166211,2.00672773 C21.6139598,2.06449284 22,2.48716416 22,3 L22,3 L22,10 L21.9932723,10.1166211 C21.9355072,10.6139598 21.5128358,11 21,11 L21,11 L20.8833789,10.9932723 C20.3860402,10.9355072 20,10.5128358 20,10 L20,10 L20,4 L14,4 L13.8833789,3.99327227 C13.3860402,3.93550716 13,3.51283584 13,3 C13,2.44771525 13.4477153,2 14,2 L14,2 L21,2 Z M10,2 C10.5522847,2 11,2.44771525 11,3 C11,3.51283584 10.6139598,3.93550716 10.1166211,3.99327227 L10,4 L4,4 L4,10 C4,10.5128358 3.61395981,10.9355072 3.11662113,10.9932723 L3,11 C2.48716416,11 2.06449284,10.6139598 2.00672773,10.1166211 L2,10 L2,3 C2,2.48716416 2.38604019,2.06449284 2.88337887,2.00672773 L3,2 L10,2 Z"/>
</svg>

<svg xmlns="http://www.w3.org/2000/svg" viewBox="0 0 24 24">
  <path d="M3 13h.12A1 1 0 0 1 4 14v6h6.12a1 1 0 0 1-.12 2H2.88A1 1 0 0 1 2 21v-7.12A1 1 0 0 1 3 13zm18 0a1 1 0 0 1 1 .88V21a1 1 0 0 1-.88 1H14a1 1 0 0 1-.12-2H20v-6a1 1 0 0 1 .88-1H21zm0-11h.12A1 1 0 0 1 22 3v7.12a1 1 0 0 1-1 .88h-.12a1 1 0 0 1-.88-1V4h-6.12A1 1 0 0 1 14 2h7zM10 2a1 1 0 0 1 .12 2H4v6a1 1 0 0 1-.88 1H3a1 1 0 0 1-1-.88V3a1 1 0 0 1 .88-1H10z"/>
</svg>
